!! 00000] TT[WS
!!!OTL: Danshui
!!!ARE: Asia, China,ÿShanxi pianguan
!! Ethnic Group: Han
!! WI, 63 (2)
!!!SCT: J0073
!!!YEM: Copyright 1995, estate of Helmut Schaffrath.
**kern
*ICvox
*Ivox
*M2/4
*k[f#]
*G:
{8ee
8ee
8dd
8b
=1
8dd
8ee
8dd
8b
=2
4dd
8ee
8b
=3
2dd}
=4
{8.b
16gg
8dd
8b
=5
8a
8b
8a
8f#
=6
8dd
8g
16a
16g
8e
=7
2d}
==
!!!AGN: Xiaodiao. Laodong, Jiawu
!!!ONB: ESAC (Essen Associative Code) Database: CHINA
!!!AMT: simple duple
!!!AIN: vox
!!!EED: Helmut Schaffrath
!!!EEV: 1.0
*-
